X: 460
T: the Cup of Gold   #2
N: Irish title: an cupan oir
R: air, jig
%S: s:4 b:15(7+8)
O: J.O'Neill
B: O'Neill's 1850 #460
Z: henrik.norbeck@mailbox.swipnet.se
N: Compacted via repeats and multiple endings [JC]
Q: "Moderate"
M: 6/8
L: 1/8
K: G
"^A"[| G2A |: B2B B2G | A2G [1 E2B/d/ | e2d d2B | G3- G2G/A/ :|[2 EGE | D2E G2G | G3 |]
"^B"|: d>ef | g2e f2d | e2d B2 [1 B/c/ | d2e d2B | d3 :|[2A/G/ | E2G G2A | B3 A2G | G3 E2D | G3 |]
